; generated by PrusaSlicer 2.1.1 on 2020-09-05 at 19:14:33 UTC

; 

; external perimeters extrusion width = 0.39mm
; perimeters extrusion width = 0.39mm
; infill extrusion width = 0.39mm
; solid infill extrusion width = 0.39mm
; top infill extrusion width = 0.35mm
; first layer extrusion width = 0.37mm

M201 X9000 Y9000 Z500 E10000 ; sets maximum accelerations, mm/sec^2
M203 X500 Y500 Z12 E120 ; sets maximum feedrates, mm/sec
M204 P1500 R1500 T1500 ; sets acceleration (P, T) and retract acceleration (R), mm/sec^2
M205 X10.00 Y10.00 Z0.20 E2.50 ; sets the jerk limits, mm/sec
M205 S0 T0 ; sets the minimum extruding and travel feed rate, mm/sec
M107
M190 S70 ; set bed temperature and wait for it to be reached
M104 S235 ; set temperature
G28 ; home all axes
G1 Z5 F5000 ; lift nozzle
M109 S235 ; set temperature and wait for it to be reached
G21 ; set units to millimeters
G90 ; use absolute coordinates
M82 ; use absolute distances for extrusion
G92 E0
; Filament gcode
G1 Z0.350 F7800.000
G1 E-2.00000 F2400.00000
G92 E0
G1 X21.102 Y-27.921 F7800.000
G1 E2.00000 F2400.00000
G1 F1800
G1 X21.867 Y-26.564 E2.06685
G1 X22.200 Y-25.450 E2.11671
G1 X22.318 Y-24.294 E2.16658
G1 X22.311 Y36.056 E4.75624
G1 X22.206 Y36.919 E4.79353
G1 X21.981 Y37.759 E4.83083
G1 X21.637 Y38.563 E4.86838
G1 X21.186 Y39.306 E4.90567
G1 X20.634 Y39.978 E4.94297
G1 X19.989 Y40.569 E4.98052
G1 X19.271 Y41.059 E5.01781
G1 X18.486 Y41.445 E5.05537
G1 X17.457 Y41.762 E5.10157
G1 X16.388 Y41.894 E5.14777
G1 X5.601 Y41.894 E5.61066
G1 X-22.523 Y40.005 E6.82016
G1 X-23.330 Y39.858 E6.85535
G1 X-24.116 Y39.603 E6.89081
G1 X-24.855 Y39.248 E6.92601
G1 X-25.545 Y38.794 E6.96146
G1 X-26.169 Y38.252 E6.99692
G1 X-26.710 Y37.636 E7.03212
G1 X-27.164 Y36.953 E7.06731
G1 X-27.526 Y36.210 E7.10277
G1 X-27.861 Y35.091 E7.15289
G1 X-27.978 Y33.922 E7.20328
G1 X-27.978 Y-26.122 E9.77980
G1 X-27.816 Y-27.506 E9.83960
G1 X-27.578 Y-28.285 E9.87454
G1 X-27.240 Y-29.025 E9.90947
G1 X-26.810 Y-29.709 E9.94414
G1 X-26.290 Y-30.336 E9.97907
G1 X-25.696 Y-30.884 E10.01374
G1 X-25.031 Y-31.353 E10.04867
G1 X-24.309 Y-31.729 E10.08361
G1 X-23.544 Y-32.008 E10.11854
G1 X-22.761 Y-32.180 E10.15295
G1 X-21.956 Y-32.250 E10.18762
G1 X-11.481 Y-32.251 E10.63711
G1 X17.202 Y-30.310 E11.87072
G1 X18.693 Y-29.856 E11.93757
G1 X20.021 Y-29.042 E12.00441
G1 X21.066 Y-27.959 E12.06901
G1 F6240
G1 X21.867 Y-26.564 E11.48123
G1 X22.200 Y-25.450 E11.05662
G1 X22.318 Y-24.294 E10.63200
G1 X22.318 Y-23.027 E10.16901
G1 E10.06901 F2400.00000
G92 E0
G1 X15.396 Y-23.475 F7800.000
G1 E2.00000 F2400.00000
G1 F1800
G1 X15.396 Y34.975 E4.50812
G1 X6.590 Y34.975 E4.88601
G1 X6.590 Y-23.475 E7.39414
G1 X15.344 Y-23.475 E7.76978
G1 X15.691 Y-23.770 F7800.000
G1 F1800
G1 X15.691 Y35.270 E10.30321
G1 X6.295 Y35.270 E10.70641
G1 X6.295 Y-23.770 E13.23984
G1 X15.639 Y-23.770 E13.64078
G1 X15.986 Y-24.065 F7800.000
G1 F1800
G1 X15.986 Y35.565 E16.19952
G1 X6.000 Y35.565 E16.62803
G1 X6.000 Y-24.065 E19.18677
G1 X15.934 Y-24.065 E19.61302
G1 X15.967 Y-23.715 F7800.000
G1 X15.308 Y-22.788
G1 F1800
G1 X14.842 Y-23.254 E19.64138
G1 X14.424 Y-23.254 E19.65940
G1 X15.175 Y-22.502 E19.70516
G1 X15.175 Y-22.084 E19.72318
G1 X14.005 Y-23.254 E19.79443
G1 X13.587 Y-23.254 E19.81246
G1 X15.175 Y-21.665 E19.90919
G1 X15.175 Y-21.247 E19.92722
G1 X13.168 Y-23.254 E20.04944
G1 X12.750 Y-23.254 E20.06746
G1 X15.175 Y-20.828 E20.21517
G1 X15.175 Y-20.410 E20.23320
G1 X12.331 Y-23.254 E20.40639
G1 X11.913 Y-23.254 E20.42442
G1 X15.175 Y-19.991 E20.62310
G1 X15.175 Y-19.573 E20.64112
G1 X11.494 Y-23.254 E20.86530
G1 X11.076 Y-23.254 E20.88332
G1 X15.175 Y-19.154 E21.13298
G1 X15.175 Y-18.736 E21.15100
G1 X10.657 Y-23.254 E21.42615
G1 X10.239 Y-23.254 E21.44417
G1 X15.175 Y-18.317 E21.74480
G1 X15.175 Y-17.899 E21.76282
G1 X9.820 Y-23.254 E22.08894
G1 X9.402 Y-23.254 E22.10697
G1 X15.175 Y-17.480 E22.45857
G1 X15.175 Y-17.062 E22.47660
G1 X8.983 Y-23.254 E22.85369
G1 X8.565 Y-23.254 E22.87171
G1 X15.175 Y-16.643 E23.27429
G1 X15.175 Y-16.225 E23.29232
G1 X8.146 Y-23.254 E23.72039
G1 X7.728 Y-23.254 E23.73841
G1 X15.175 Y-15.806 E24.19196
G1 X15.175 Y-15.388 E24.20999
G1 X7.309 Y-23.254 E24.68903
G1 X6.891 Y-23.254 E24.70705
G1 X15.175 Y-14.969 E25.21158
G1 X15.175 Y-14.551 E25.22960
G1 X6.811 Y-22.915 E25.73898
G1 X6.811 Y-22.496 E25.75700
G1 X15.175 Y-14.132 E26.26637
G1 X15.175 Y-13.714 E26.28439
G1 X6.811 Y-22.078 E26.79377
G1 X6.811 Y-21.659 E26.81179
G1 X15.175 Y-13.295 E27.32116
G1 X15.175 Y-12.877 E27.33919
G1 X6.811 Y-21.241 E27.84856
G1 X6.811 Y-20.822 E27.86658
G1 X15.175 Y-12.458 E28.37596
G1 X15.175 Y-12.040 E28.39398
G1 X6.811 Y-20.404 E28.90335
G1 X6.811 Y-19.985 E28.92137
G1 X15.175 Y-11.621 E29.43075
G1 X15.175 Y-11.203 E29.44877
G1 X6.811 Y-19.567 E29.95814
G1 X6.811 Y-19.148 E29.97617
G1 X15.175 Y-10.784 E30.48554
G1 X15.175 Y-10.366 E30.50356
G1 X6.811 Y-18.730 E31.01294
G1 X6.811 Y-18.311 E31.03096
G1 X15.175 Y-9.947 E31.54033
G1 X15.175 Y-9.528 E31.55836
G1 X6.811 Y-17.893 E32.06773
G1 X6.811 Y-17.474 E32.08575
G1 X15.175 Y-9.110 E32.59513
G1 X15.175 Y-8.691 E32.61315
G1 X6.811 Y-17.056 E33.12252
G1 X6.811 Y-16.637 E33.14054
G1 X15.175 Y-8.273 E33.64992
G1 X15.175 Y-7.854 E33.66794
G1 X6.811 Y-16.219 E34.17731
G1 X6.811 Y-15.800 E34.19534
G1 X15.175 Y-7.436 E34.70471
G1 X15.175 Y-7.017 E34.72273
G1 X6.811 Y-15.382 E35.23211
G1 X6.811 Y-14.963 E35.25013
G1 X15.175 Y-6.599 E35.75950
G1 X15.175 Y-6.180 E35.77752
G1 X6.811 Y-14.545 E36.28690
G1 X6.811 Y-14.126 E36.30492
G1 X15.175 Y-5.762 E36.81429
G1 X15.175 Y-5.343 E36.83232
G1 X6.811 Y-13.708 E37.34169
G1 X6.811 Y-13.289 E37.35971
G1 X15.175 Y-4.925 E37.86909
G1 X15.175 Y-4.506 E37.88711
G1 X6.811 Y-12.871 E38.39648
G1 X6.811 Y-12.452 E38.41451
G1 X15.175 Y-4.088 E38.92388
G1 X15.175 Y-3.669 E38.94190
G1 X6.811 Y-12.034 E39.45128
G1 X6.811 Y-11.615 E39.46930
G1 X15.175 Y-3.251 E39.97867
G1 X15.175 Y-2.832 E39.99669
G1 X6.811 Y-11.197 E40.50607
G1 X6.811 Y-10.778 E40.52409
G1 X15.175 Y-2.414 E41.03346
G1 X15.175 Y-1.995 E41.05149
G1 X6.811 Y-10.360 E41.56086
G1 X6.811 Y-9.941 E41.57888
G1 X15.175 Y-1.577 E42.08826
G1 X15.175 Y-1.158 E42.10628
G1 X6.811 Y-9.522 E42.61565
G1 X6.811 Y-9.104 E42.63367
G1 X15.175 Y-0.740 E43.14305
G1 X15.175 Y-0.321 E43.16107
G1 X6.811 Y-8.685 E43.67045
G1 X6.811 Y-8.267 E43.68847
G1 X15.175 Y0.097 E44.19784
G1 X15.175 Y0.516 E44.21586
G1 X6.811 Y-7.848 E44.72524
G1 X6.811 Y-7.430 E44.74326
G1 X15.175 Y0.934 E45.25263
G1 X15.175 Y1.353 E45.27066
G1 X6.811 Y-7.011 E45.78003
G1 X6.811 Y-6.593 E45.79805
G1 X15.175 Y1.771 E46.30743
G1 X15.175 Y2.190 E46.32545
G1 X6.811 Y-6.174 E46.83482
G1 X6.811 Y-5.756 E46.85284
G1 X15.175 Y2.608 E47.36222
G1 X15.175 Y3.027 E47.38024
G1 X6.811 Y-5.337 E47.88961
G1 X6.811 Y-4.919 E47.90764
G1 X15.175 Y3.445 E48.41701
G1 X15.175 Y3.864 E48.43503
G1 X6.811 Y-4.500 E48.94441
G1 X6.811 Y-4.082 E48.96243
G1 X15.175 Y4.282 E49.47180
G1 X15.175 Y4.701 E49.48982
G1 X6.811 Y-3.663 E49.99920
G1 X6.811 Y-3.245 E50.01722
G1 X15.175 Y5.119 E50.52660
G1 X15.175 Y5.538 E50.54462
G1 X6.811 Y-2.826 E51.05399
G1 X6.811 Y-2.408 E51.07201
G1 X15.175 Y5.956 E51.58139
G1 X15.175 Y6.375 E51.59941
G1 X6.811 Y-1.989 E52.10878
G1 X6.811 Y-1.571 E52.12681
G1 X15.175 Y6.793 E52.63618
G1 X15.175 Y7.212 E52.65420
G1 X6.811 Y-1.152 E53.16358
G1 X6.811 Y-0.734 E53.18160
G1 X15.175 Y7.631 E53.69097
G1 X15.175 Y8.049 E53.70899
G1 X6.811 Y-0.315 E54.21837
G1 X6.811 Y0.103 E54.23639
G1 X15.175 Y8.468 E54.74576
G1 X15.175 Y8.886 E54.76379
G1 X6.811 Y0.522 E55.27316
G1 X6.811 Y0.940 E55.29118
G1 X15.175 Y9.305 E55.80056
G1 X15.175 Y9.723 E55.81858
G1 X6.811 Y1.359 E56.32795
G1 X6.811 Y1.777 E56.34598
G1 X15.175 Y10.142 E56.85535
G1 X15.175 Y10.560 E56.87337
G1 X6.811 Y2.196 E57.38275
G1 X6.811 Y2.614 E57.40077
G1 X15.175 Y10.979 E57.91014
G1 X15.175 Y11.397 E57.92816
G1 X6.811 Y3.033 E58.43754
G1 X6.811 Y3.451 E58.45556
G1 X15.175 Y11.816 E58.96493
G1 X15.175 Y12.234 E58.98296
G1 X6.811 Y3.870 E59.49233
G1 X6.811 Y4.288 E59.51035
G1 X15.175 Y12.653 E60.01973
G1 X15.175 Y13.071 E60.03775
G1 X6.811 Y4.707 E60.54712
G1 X6.811 Y5.125 E60.56514
G1 X15.175 Y13.490 E61.07452
G1 X15.175 Y13.908 E61.09254
G1 X6.811 Y5.544 E61.60191
G1 X6.811 Y5.962 E61.61994
G1 X15.175 Y14.327 E62.12931
G1 X15.175 Y14.745 E62.14733
G1 X6.811 Y6.381 E62.65671
G1 X6.811 Y6.799 E62.67473
G1 X15.175 Y15.164 E63.18410
G1 X15.175 Y15.582 E63.20213
G1 X6.811 Y7.218 E63.71150
G1 X6.811 Y7.637 E63.72952
G1 X15.175 Y16.001 E64.23890
G1 X15.175 Y16.419 E64.25692
G1 X6.811 Y8.055 E64.76629
G1 X6.811 Y8.474 E64.78431
G1 X15.175 Y16.838 E65.29369
G1 X15.175 Y17.256 E65.31171
G1 X6.811 Y8.892 E65.82108
G1 X6.811 Y9.311 E65.83911
G1 X15.175 Y17.675 E66.34848
G1 X15.175 Y18.093 E66.36650
G1 X6.811 Y9.729 E66.87588
G1 X6.811 Y10.148 E66.89390
G1 X15.175 Y18.512 E67.40327
G1 X15.175 Y18.930 E67.42129
G1 X6.811 Y10.566 E67.93067
G1 X6.811 Y10.985 E67.94869
G1 X15.175 Y19.349 E68.45806
G1 X15.175 Y19.767 E68.47609
G1 X6.811 Y11.403 E68.98546
G1 X6.811 Y11.822 E69.00348
G1 X15.175 Y20.186 E69.51286
G1 X15.175 Y20.604 E69.53088
G1 X6.811 Y12.240 E70.04025
G1 X6.811 Y12.659 E70.05827
G1 X15.175 Y21.023 E70.56765
G1 X15.175 Y21.441 E70.58567
G1 X6.811 Y13.077 E71.09504
G1 X6.811 Y13.496 E71.11307
G1 X15.175 Y21.860 E71.62244
G1 X15.175 Y22.278 E71.64046
G1 X6.811 Y13.914 E72.14984
G1 X6.811 Y14.333 E72.16786
G1 X15.175 Y22.697 E72.67723
G1 X15.175 Y23.115 E72.69526
G1 X6.811 Y14.751 E73.20463
G1 X6.811 Y15.170 E73.22265
G1 X15.175 Y23.534 E73.73203
G1 X15.175 Y23.952 E73.75005
G1 X6.811 Y15.588 E74.25942
G1 X6.811 Y16.007 E74.27744
G1 X15.175 Y24.371 E74.78682
G1 X15.175 Y24.790 E74.80484
G1 X6.811 Y16.425 E75.31421
G1 X6.811 Y16.844 E75.33224
G1 X15.175 Y25.208 E75.84161
G1 X15.175 Y25.627 E75.85963
G1 X6.811 Y17.262 E76.36901
G1 X6.811 Y17.681 E76.38703
G1 X15.175 Y26.045 E76.89640
G1 X15.175 Y26.464 E76.91442
G1 X6.811 Y18.099 E77.42380
G1 X6.811 Y18.518 E77.44182
G1 X15.175 Y26.882 E77.95119
G1 X15.175 Y27.301 E77.96922
G1 X6.811 Y18.936 E78.47859
G1 X6.811 Y19.355 E78.49661
G1 X15.175 Y27.719 E79.00599
G1 X15.175 Y28.138 E79.02401
G1 X6.811 Y19.773 E79.53338
G1 X6.811 Y20.192 E79.55140
G1 X15.175 Y28.556 E80.06078
G1 X15.175 Y28.975 E80.07880
G1 X6.811 Y20.610 E80.58817
G1 X6.811 Y21.029 E80.60620
G1 X15.175 Y29.393 E81.11557
G1 X15.175 Y29.812 E81.13359
G1 X6.811 Y21.447 E81.64297
G1 X6.811 Y21.866 E81.66099
G1 X15.175 Y30.230 E82.17036
G1 X15.175 Y30.649 E82.18839
G1 X6.811 Y22.284 E82.69776
G1 X6.811 Y22.703 E82.71578
G1 X15.175 Y31.067 E83.22516
G1 X15.175 Y31.486 E83.24318
G1 X6.811 Y23.121 E83.75255
G1 X6.811 Y23.540 E83.77057
G1 X15.175 Y31.904 E84.27995
G1 X15.175 Y32.323 E84.29797
G1 X6.811 Y23.959 E84.80734
G1 X6.811 Y24.377 E84.82537
G1 X15.175 Y32.741 E85.33474
G1 X15.175 Y33.160 E85.35276
G1 X6.811 Y24.796 E85.86214
G1 X6.811 Y25.214 E85.88016
G1 X15.175 Y33.578 E86.38953
G1 X15.175 Y33.997 E86.40755
G1 X6.811 Y25.633 E86.91693
G1 X6.811 Y26.051 E86.93495
G1 X15.175 Y34.415 E87.44432
G1 X15.175 Y34.754 E87.45892
G1 X15.096 Y34.754 E87.46235
G1 X6.811 Y26.470 E87.96688
G1 X6.811 Y26.888 E87.98490
G1 X14.677 Y34.754 E88.46394
G1 X14.259 Y34.754 E88.48197
G1 X6.811 Y27.307 E88.93552
G1 X6.811 Y27.725 E88.95355
G1 X13.840 Y34.754 E89.38162
G1 X13.422 Y34.754 E89.39964
G1 X6.811 Y28.144 E89.80222
G1 X6.811 Y28.562 E89.82024
G1 X13.003 Y34.754 E90.19734
G1 X12.585 Y34.754 E90.21536
G1 X6.811 Y28.981 E90.56697
G1 X6.811 Y29.399 E90.58499
G1 X12.166 Y34.754 E90.91112
G1 X11.748 Y34.754 E90.92914
G1 X6.811 Y29.818 E91.22977
G1 X6.811 Y30.236 E91.24779
G1 X11.329 Y34.754 E91.52294
G1 X10.911 Y34.754 E91.54097
G1 X6.811 Y30.655 E91.79063
G1 X6.811 Y31.073 E91.80865
G1 X10.492 Y34.754 E92.03282
G1 X10.074 Y34.754 E92.05084
G1 X6.811 Y31.492 E92.24953
G1 X6.811 Y31.910 E92.26755
G1 X9.655 Y34.754 E92.44075
G1 X9.237 Y34.754 E92.45878
G1 X6.811 Y32.329 E92.60649
G1 X6.811 Y32.747 E92.62451
G1 X8.818 Y34.754 E92.74674
G1 X8.399 Y34.754 E92.76476
G1 X6.811 Y33.166 E92.86150
G1 X6.811 Y33.584 E92.87952
G1 X7.981 Y34.754 E92.95077
G1 X7.562 Y34.754 E92.96880
G1 X6.811 Y34.003 E93.01456
G1 X6.811 Y34.421 E93.03258
G1 X7.277 Y34.887 E93.06094
G1 F6240
G1 X6.811 Y34.421 E92.82031
G1 X6.811 Y34.003 E92.66739
G1 X7.562 Y34.754 E92.27907
G1 X7.981 Y34.754 E92.12615
G1 X6.811 Y33.584 E91.52157
G1 X6.811 Y33.166 E91.36866
G1 X7.213 Y33.568 E91.16094
G1 E91.06094 F2400.00000
G92 E0
G1 X-12.261 Y33.122 F7800.000
G1 E2.00000 F2400.00000
G1 F1800
G1 X-21.056 Y33.122 E2.37737
G1 X-21.056 Y-25.329 E4.88549
G1 X-12.261 Y-25.329 E5.26286
G1 X-12.261 Y33.069 E7.76873
G1 X-11.967 Y33.416 F7800.000
G1 F1800
G1 X-21.351 Y33.416 E8.17141
G1 X-21.351 Y-25.624 E10.70484
G1 X-11.967 Y-25.624 E11.10751
G1 X-11.967 Y33.364 E13.63869
G1 X-11.672 Y33.711 F7800.000
G1 F1800
G1 X-21.646 Y33.711 E14.06667
G1 X-21.646 Y-25.919 E16.62541
G1 X-11.672 Y-25.919 E17.05340
G1 X-11.672 Y33.659 E19.60988
G1 X-11.984 Y33.553 F7800.000
G1 F6240
G1 X-16.872 Y33.686 E17.70988
G1 E17.60988 F2400.00000
G92 E0
G1 X-20.369 Y33.033 F7800.000
G1 E2.00000 F2400.00000
G1 F1800
G1 X-20.835 Y32.568 E2.02835
G1 X-20.835 Y32.149 E2.04636
G1 X-20.083 Y32.900 E2.09211
G1 X-19.665 Y32.900 E2.11013
G1 X-20.835 Y31.731 E2.18135
G1 X-20.835 Y31.312 E2.19937
G1 X-19.246 Y32.900 E2.29607
G1 X-18.828 Y32.900 E2.31409
G1 X-20.835 Y30.894 E2.43627
G1 X-20.835 Y30.475 E2.45428
G1 X-18.410 Y32.900 E2.60194
G1 X-17.991 Y32.900 E2.61996
G1 X-20.835 Y30.057 E2.79309
G1 X-20.835 Y29.638 E2.81111
G1 X-17.573 Y32.900 E3.00972
G1 X-17.154 Y32.900 E3.02774
G1 X-20.835 Y29.220 E3.25183
G1 X-20.835 Y28.802 E3.26984
G1 X-16.736 Y32.900 E3.51941
G1 X-16.317 Y32.900 E3.53743
G1 X-20.835 Y28.383 E3.81247
G1 X-20.835 Y27.965 E3.83049
G1 X-15.899 Y32.900 E4.13101
G1 X-15.481 Y32.900 E4.14903
G1 X-20.835 Y27.546 E4.47503
G1 X-20.835 Y27.128 E4.49305
G1 X-15.062 Y32.900 E4.84453
G1 X-14.644 Y32.900 E4.86254
G1 X-20.835 Y26.709 E5.23950
G1 X-20.835 Y26.291 E5.25752
G1 X-14.225 Y32.900 E5.65995
G1 X-13.807 Y32.900 E5.67797
G1 X-20.835 Y25.873 E6.10588
G1 X-20.835 Y25.454 E6.12390
G1 X-13.388 Y32.900 E6.57729
G1 X-12.970 Y32.900 E6.59530
G1 X-20.835 Y25.036 E7.07417
G1 X-20.835 Y24.617 E7.09219
G1 X-12.551 Y32.900 E7.59653
G1 X-12.483 Y32.900 E7.59950
G1 X-12.483 Y32.551 E7.61455
G1 X-20.835 Y24.199 E8.12309
G1 X-20.835 Y23.780 E8.14110
G1 X-12.483 Y32.132 E8.64964
G1 X-12.483 Y31.714 E8.66766
G1 X-20.835 Y23.362 E9.17620
G1 X-20.835 Y22.944 E9.19421
G1 X-12.483 Y31.296 E9.70275
G1 X-12.483 Y30.877 E9.72077
G1 X-20.835 Y22.525 E10.22931
G1 X-20.835 Y22.107 E10.24732
G1 X-12.483 Y30.459 E10.75586
G1 X-12.483 Y30.040 E10.77388
G1 X-20.835 Y21.688 E11.28241
G1 X-20.835 Y21.270 E11.30043
G1 X-12.483 Y29.622 E11.80897
G1 X-12.483 Y29.203 E11.82698
G1 X-20.835 Y20.851 E12.33552
G1 X-20.835 Y20.433 E12.35354
G1 X-12.483 Y28.785 E12.86208
G1 X-12.483 Y28.367 E12.88009
G1 X-20.835 Y20.014 E13.38863
G1 X-20.835 Y19.596 E13.40665
G1 X-12.483 Y27.948 E13.91519
G1 X-12.483 Y27.530 E13.93320
G1 X-20.835 Y19.178 E14.44174
G1 X-20.835 Y18.759 E14.45976
G1 X-12.483 Y27.111 E14.96830
G1 X-12.483 Y26.693 E14.98631
G1 X-20.835 Y18.341 E15.49485
G1 X-20.835 Y17.922 E15.51287
G1 X-12.483 Y26.274 E16.02141
G1 X-12.483 Y25.856 E16.03942
G1 X-20.835 Y17.504 E16.54796
G1 X-20.835 Y17.085 E16.56598
G1 X-12.483 Y25.437 E17.07452
G1 X-12.483 Y25.019 E17.09253
G1 X-20.835 Y16.667 E17.60107
G1 X-20.835 Y16.249 E17.61909
G1 X-12.483 Y24.601 E18.12763
G1 X-12.483 Y24.182 E18.14564
G1 X-20.835 Y15.830 E18.65418
G1 X-20.835 Y15.412 E18.67220
G1 X-12.483 Y23.764 E19.18074
G1 X-12.483 Y23.345 E19.19875
G1 X-20.835 Y14.993 E19.70729
G1 X-20.835 Y14.575 E19.72531
G1 X-12.483 Y22.927 E20.23385
G1 X-12.483 Y22.508 E20.25186
G1 X-20.835 Y14.156 E20.76040
G1 X-20.835 Y13.738 E20.77842
G1 X-12.483 Y22.090 E21.28695
G1 X-12.483 Y21.672 E21.30497
G1 X-20.835 Y13.319 E21.81351
G1 X-20.835 Y12.901 E21.83152
G1 X-12.483 Y21.253 E22.34006
G1 X-12.483 Y20.835 E22.35808
G1 X-20.835 Y12.483 E22.86662
G1 X-20.835 Y12.064 E22.88463
G1 X-12.483 Y20.416 E23.39317
G1 X-12.483 Y19.998 E23.41119
